X:1
T:Seven Cent Cotton and Forty Cent Meat
M:4/4
L:1/8
K:A
 A,A, A,2 CC E2| AA A2 E4| A2 AA E2 EE| C2 C2 B,4| A,A, A,2 C2 E2|\
 AA A2 E4| A2 AA A2 cc| B2 B2 A4| D2 D2 D4| C2 C2 C4| ^D2 D2 D2 B,B,|\
 E2 EE E4| A,2 A,A, CC E2| AA A2 E4| AA A2 A2 c2| B2 B2 A4|

